X:53
T: WIE HOCH IST DOCH DER HIMMEL
N: E0670
O: Europa, Mitteleuropa, Deutschland
R: Liebes - Lied
M: 6/8
L: 1/8
K: Eb
B | BeeeGG | G2BB2
E | E2Ec2B | B3A2
A | AfffFF | FcccD
D | DAAAB,A | G3E2

@@@ Tune index: 4366
